packages/app/src/assets/warning.svg

<svg width="25" height="25" viewBox="0 0 25 25" fill="currentColor" xmlns="http://www.w3.org/2000/svg" focusable="false">
	<path d="M22.8841 19.717L13.4281 3.70002C13.3245 3.52453 13.177 3.37908 13 3.27806C12.8231 3.17704 12.6228 3.12395 12.4191 3.12402H12.4141C11.9981 3.12602 11.6141 3.34802 11.4051 3.70802L2.11105 19.724C2.00806 19.9022 1.95376 20.1044 1.95361 20.3102C1.95347 20.516 2.00748 20.7183 2.11023 20.8966C2.21298 21.0749 2.36084 21.2231 2.53898 21.3262C2.71711 21.4293 2.91923 21.4837 3.12505 21.484H21.8751C22.0816 21.4839 22.2845 21.4292 22.4631 21.3254C22.6417 21.2217 22.7897 21.0726 22.8921 20.8932C22.9945 20.7138 23.0477 20.5106 23.0463 20.304C23.0449 20.0975 22.9889 19.895 22.8841 19.717ZM5.16005 19.14L12.4281 6.61602L19.8221 19.14H5.16005Z" fill="currentColor" />
	<path d="M12.4931 16.023C11.9011 16.023 11.5931 16.45 11.5931 16.995C11.5931 17.611 11.9251 17.943 12.5051 17.943C13.0981 17.943 13.4061 17.528 13.4061 16.995C13.4061 16.367 13.0741 16.023 12.4931 16.023ZM11.7701 15.625L13.2161 15.587V13.68L13.3531 9.87902L11.7711 10.016L11.7701 15.625Z" fill="currentColor" />
</svg>

<svg focusable="false" viewbox="0 0 25 25" width="25" height="25" fill="#8C8C8C" xmlns="http://www.w3.org/2000/svg"><path d="M22.884 19.717L13.428 3.7a1.171 1.171 0 00-1.009-.576h-.005c-.416.002-.8.224-1.009.584L2.111 19.724a1.173 1.173 0 001.014 1.76h18.75a1.172 1.172 0 001.009-1.767zM5.16 19.14l7.268-12.524 7.394 12.524H5.16z"/><path d="M12.493 16.023c-.592 0-.9.427-.9.972 0 .616.332.948.912.948.593 0 .901-.415.901-.948 0-.628-.332-.972-.913-.972zM11.77 15.625l1.446-.038V13.68l.137-3.801-1.582.137v5.609z" /></svg>
